!!!COM: Anonymous
!!!OTL: L'aumosne au povre desireulx--rondeau / Dijon Chansonnier
!!!AGN: Song; Chanson; Rondeau
!!!SCT: Ano3156
!!!SCA: Ano3156
!!!SMS: Dijon Chansonnier
!!!folio: 98v-99r
!!!voices: 3
**kern	**kern	**kern
*staff3	*staff2	*staff1
*Ivox	*Ivox	*Ivox
*I"Contra	*I"Tenor	*I"Discantus
*I'C	*I'T	*I'D
*clefGv2	*clefGv2	*clefG2
*k[]	*k[]	*k[]
*M3/1	*M3/1	*M3/1
*met(O)	*met(O)	*met(O)
=1-	=1-	=1-
!!LO:TX:X=-40:Z=24:t=All fermatas appear as signa congruentiae in MS.
1A	0.r	0.r
0c	.	.
=2	=2	=2
1c	1A	0.r
0F	0c	.
=3	=3	=3
1F	1c	1a
0f	0F	0cc
=4	=4	=4
2f	1F	1cc
4e	.	.
4d	.	.
2c	1F	1.a
2A	.	.
2G	2E	.
[2c	2C	2g
=5	=5	=5
2c]	1D	2a
2B	.	4g
.	.	4f
1c;	1C;	1e;
[1C	1c	2.e
.	.	4f
=6	=6	=6
1C]	0c	1g
0F	.	1.a
.	1c	.
.	.	2g
=7	=7	=7
1G	1B	1g
1F	0A	1.cc
2c	.	.
4B	.	2a
4c	.	.
=8	=8	=8
0d;	0G;	0b;
1f	1F	1a
=9	=9	=9
2f	2F	2a
2f	2F	2a
2d	2B-	2g
2d	2B-	2g
2c	1c	2e
2A	.	[2a
=10	=10	=10
2F	2A	2a]
2D	2F	1f
1C	1G	.
.	.	2e
[1cN	[1FN	1fN
=11	=11	=11
2c]	2F]	2r
2B	2G	2e
2c	2A	2f
2d	2B	2g
1e	1c	[1a
=12	=12	=12
2f	0F	2a]
1d	.	4f
.	.	4g
!	!	!LO:TX:Z=24:t=MS&colon; sm
.	.	2f
2c	.	4e
.	.	4f
1d	1B-i	1d
=13	=13	=13
0.e;	0.A;	0.c;
=14	=14	=14
0.d;	0.B-i;	0.g;
=15	=15	=15
0f;	0F;	0a;
1f;	1F;	1cc;
=16	=16	=16
0.d;	0.G;	0.b;
=17	=17	=17
1.e	0c	1.a
2c	.	2g
1f	1F	1a
=18	=18	=18
1.d	1G	1b-
.	0d	1.a
1f	.	.
2e	.	2g
=19	=19	=19
0d	1B	1.g
.	0A	.
.	.	2e
1c	.	1f#i
=20	=20	=20
1.d	0G	1g
.	.	1r
2e	.	.
2f	1d	2a
2d	.	2b
=21	=21	=21
1.e	0A	1.cc;
2c	.	2a
1G	1d	2b
.	.	2cc
=22	=22	=22
0.F;	0.f;	0.a;
=23	=23	=23
1.f	0F	1.cc
2e	.	2b
2d	1F	1a
2c	.	.
=24	=24	=24
1e	1c	2g
.	.	1a
1f	1d	.
.	.	1b-i
2g	1c	.
2e	.	2a
=25	=25	=25
2d	2B	1g
2e	2c	.
1f	1F	2a
.	.	2f
[1F	1c	2e
.	.	2f
=26	=26	=26
2F]	2A	2a
2G	2B-i	2.g
2F	2A	.
.	.	4f
2D	2F	1f
1C	1G	.
.	.	2e
=27	=27	=27
0.cl	0.Fl	0.fl
==	==	==
*-	*-	*-
!!!RDF**kern: l=long note in original notation
!!!RDF**kern: i=editorial accidental
!!!RDF**kern: N=signum congruentiae
!!!ENC: Chris Gage 1-25-2017
!!!END: 2018/12/10/
!!!EED: Jesse Rodin
!!!EEV: 2018/12/13/
!!!ONB: Translated from MusicXML and edited on 2018/12/13/ by Craig Sapp
!!muse2ps: C^@{COM}\n@{SMS}, @{folio}^v95,95,150Q16
